app/component-library/components/Icons/Icon/assets/user-minus.svg

<svg width="24" height="24" viewBox="0 0 24 24" fill="none" xmlns="http://www.w3.org/2000/svg">
<path fill-rule="evenodd" clip-rule="evenodd" d="M16.2812 7C16.2812 9.76142 14.0427 12 11.2812 12C8.51983 12 6.28125 9.76142 6.28125 7C6.28125 4.23858 8.51983 2 11.2812 2C14.0427 2 16.2812 4.23858 16.2812 7ZM2.28125 21.5C2.28125 17.36 6.36125 14 11.3713 14C12.7936 14 14.1411 14.2708 15.3414 14.7535C14.8318 15.4544 14.5312 16.3171 14.5312 17.25C14.5312 19.5972 16.434 21.5 18.7812 21.5C19.3744 21.5 19.9391 21.3785 20.452 21.159C20.4581 21.272 20.4613 21.3857 20.4613 21.5C20.4613 21.78 20.2413 22 19.9613 22H2.78125C2.50125 22 2.28125 21.78 2.28125 21.5Z" fill="currentColor"/>
<path fill-rule="evenodd" clip-rule="evenodd" d="M18.7812 21.25C20.9904 21.25 22.7812 19.4591 22.7812 17.25C22.7812 15.0409 20.9904 13.25 18.7812 13.25C16.5721 13.25 14.7812 15.0409 14.7812 17.25C14.7812 19.4591 16.5721 21.25 18.7812 21.25ZM17.2913 16.75C17.0151 16.75 16.7913 16.9739 16.7913 17.25C16.7913 17.5261 17.0151 17.75 17.2913 17.75H20.2712C20.5474 17.75 20.7712 17.5261 20.7712 17.25C20.7712 16.9739 20.5474 16.75 20.2712 16.75H17.2913Z" fill="currentColor"/>
</svg>

<svg xmlns="http://www.w3.org/2000/svg" width="24" height="24" viewBox="0 0 24 24" fill="none"><path fill="currentColor" fill-rule="evenodd" d="M16.281 7a5 5 0 1 1-10 0 5 5 0 0 1 10 0Zm-14 14.5c0-4.14 4.08-7.5 9.09-7.5 1.423 0 2.77.27 3.97.754a4.25 4.25 0 0 0 5.11 6.405c.007.113.01.227.01.341 0 .28-.22.5-.5.5H2.781c-.28 0-.5-.22-.5-.5Z" clip-rule="evenodd"/><path fill="currentColor" fill-rule="evenodd" d="M18.781 21.25a4 4 0 1 0 0-8 4 4 0 0 0 0 8Zm-1.49-4.5a.5.5 0 1 0 0 1h2.98a.5.5 0 1 0 0-1h-2.98Z" clip-rule="evenodd"/></svg>
